src/lib/packages/icons/src/assets/filled/user-plus-alt.svg

<svg xmlns="http://www.w3.org/2000/svg" width="24" height="24" fill="none"><path fill="currentColor" d="M21.75 10a.75.75 0 0 1-.75.75h-1.75v1.75a.75.75 0 0 1-1.5 0v-1.75H16a.75.75 0 0 1 0-1.5h1.75V7.5a.75.75 0 0 1 1.5 0v1.75H21a.75.75 0 0 1 .75.75Zm-11.741.5c2.206 0 4-1.794 4-4s-1.794-4-4-4-4 1.794-4 4 1.794 4 4 4Zm1.991 2H8c-4.06 0-5.5 2.973-5.5 5.519V21a.5.5 0 0 0 .5.5h14a.5.5 0 0 0 .5-.5v-2.981c0-2.546-1.44-5.519-5.5-5.519Z"/></svg>

<svg width="24" height="24" viewBox="0 0 24 24" fill="none" xmlns="http://www.w3.org/2000/svg">
<path d="M21.75 10C21.75 10.414 21.414 10.75 21 10.75H19.25V12.5C19.25 12.914 18.914 13.25 18.5 13.25C18.086 13.25 17.75 12.914 17.75 12.5V10.75H16C15.586 10.75 15.25 10.414 15.25 10C15.25 9.586 15.586 9.25 16 9.25H17.75V7.5C17.75 7.086 18.086 6.75 18.5 6.75C18.914 6.75 19.25 7.086 19.25 7.5V9.25H21C21.414 9.25 21.75 9.586 21.75 10ZM10.009 10.5C12.215 10.5 14.009 8.706 14.009 6.5C14.009 4.294 12.215 2.5 10.009 2.5C7.80303 2.5 6.00903 4.294 6.00903 6.5C6.00903 8.706 7.80303 10.5 10.009 10.5ZM12 12.5H8C3.94 12.5 2.5 15.473 2.5 18.019V21C2.5 21.276 2.724 21.5 3 21.5H17C17.276 21.5 17.5 21.276 17.5 21V18.019C17.5 15.473 16.06 12.5 12 12.5Z" fill="currentColor"/>
</svg>
